X: 7070
T: Chris Droney's Favourite
R: reel
M: 4/4
K: Edorian
BE~E2 e2fe|edBc dBAG|FDAD BDAG|FDFA dBAd|
BE~E2 (3Bcd fd|edBc defd|edef dBAF|1 DEFD E2FA:|2 DEFD E3z||
|:e2Be edfd|edBc dBAG|FDAD BDAG|FDFA dBAd|
Beed e2de|fd~d2 edBd|edef dBAF|1 DEFD E3z:|2 DEFD E2FA||

